X:1
T:Lord Ronald my son
M:3/4
L:1/8
K:C
 G3/2- A/2| B2 B2B-d|c-B A2B-d| e2 e2d-B| B2- A2B-d| e3- dB-G|D-E G2G-A|\
 B2c-B A3/2- G/2| G4 G3/2 A/2| B2 B2B-d|c-B A2 Bd| e2 d2d-B| B2- A2 Bd|\
 e3 dB G| D2 G2G-A| B2c-B A3/2- G/2| G4||
